!!!COM: Schubert, Franz
!!!CNT: Deutscher
!!!TXO: Deutsch
!!!LYR: Johann Meyrhofer
!!!OTL: "Aus Heliopolis I"
!!!OPS: Op. 65
!!!ONM: No. 3
!!!ODT: 1822/
!!NB: Vocal melody only encoded.
!!NB: Original key
**kern	**silbe
*clefG2	*
*k[f#]	*
*met(C)	*
*M4/4	*
*MM[Massig]	*
=3	=3
2r	.
4r	.
{4B	{Im
=4	=4
4e	kal-
4g	-ten,
4f#	rau-
4B	-hen
=5	=5
2c	Nor-
4B}	-den}
8r	.
{8B	{ist
=6	=6
4A	Kun-
4B	-de
4c	mir
4c#	ge-
=7	=7
2d	-wor-
4d	-den
4d#	von
=8	=8
4.e	ei-
8e	-ner
4f#	-Stadt,
4g	der
=9	=9
4a	Son-
2cc	|
8b	-nen-
8a	|
=10	=10
2g}	-stadt.}
4r	.
{4b	{Wo
=11	=11
4.b	weilt
8cc	das
4b	Schiff,
4ee	wo
=12	=12
4.b	ist
8cc	der
4b}	Pfad,}
{4b	{die
=13	=13
4.a	mich
8a	zu
4.b	je-
8b	-nen
=14	=14
4cc	Hal-
4a	-len
2b	tra-
=15	=15
4g}	-gen?}
4r	.
2r	.
=16	=16
2r	.
4r	.
{4b	{Von
=17	=17
4.cc	Men-
8a	-schen
8f#	konnt'
8d#	ich
8B	nichts
8A	er-
=18	=18
4G#	-tra-
4G#}	-gen,}
4r	.
{4b	{im
=19	=19
4cc	Zwies-
4a	-palt
4f#	wa-
4d#	-ren
=20	=20
4e	sie
4f#	ver-
4.g	-wor-
8f#	|
=21	=21
4e}	-ren.}
4r	.
2r	.
=22	=22
1r	.
=23	=23
2r	.
4r	.
{4e	{Zur
=24	=24
*k[f#c#g#d#]	*
2b	Blu-
4a	-me,
8cc#	die
8b	sich
=25	=25
4.a	He-
8g#	-li-
4f#	-os
4e	er-
=26	=26
2f#	-ko-
4g#}	-ren,}
{4e	{die
=27	=27
2b	e-
4a	-wig,
8cc#	e-
8a	-wig
=28	=28
4g#	in
4f#	sein
4e	Ant-
4g#	-litz
=29	=19
2f#	blickt,
8f#	wandt'
8e#	|
8f#	ich
8g#	mich
=30	=30
2a#}	nun,}
4r	.
{4b	{und
=31	=31
4cc#	ward
4ee	|
4dd#	ent-
4cc#	|
=32	=32
2b}	-zu2ckt:}
2r	.
=33	=33
1r	.
=34	=34
{2ee	{"Wen-
2b	-de,
=35	=35
4.ee	so
8ee	wie
4.b	ich,
8b	zur
=36	=36
4g#	Son-
4b	-ne
4ee	dei-
4cc#	-ne
=37	=37
2b	Au-
4g#}	-gen!}
4r	.
=38	=38
{4.b	{Dort
8cc#	ist
4dd#	Won-
4b	-ne
=39	=39
4.b	dort
8cc#	ist
4dd#	Le-
4b}	-ben;}
=40	=40
{2.ee	{treu
8dd#	er-
8cc#	|
=41	=41
2dd#	-ge-
2b	-ben,
=42	=42
4g#	pil-
4cc#	|
4b	-gre
4a#	|
=43	=43
2b}	zu}
4r	.
{4b	{und
=44	=44
2.ee	zweif-
8dd#	-le
8cc#	|
=45	=45
2dd#	nicht:
4dd#	Ru-
4b	-he
=46	=46
4g#	fin-
4cc#	-dest
4b	du
4a#	im
=47	=47
2b}	Licht.}
2r	.
=48	=48
1r	.
=49	=49
{2ee	{Licht
2b	er-
=50	=50
2ee	-zeu-
2b	-get
=51	=51
4g#	al-
4b	|
4ee	|
4cc#	-le
=52	=52
2b	Glu-
2g#}	-ten,}
=53	=53
{4.cc#	{Hoff-
8dd#	-nungs-
4cc#	-pflan-
4b#	-zen,
=54	=54
4.ee	Ta-
8dd#	-ten-
4cc#	-flu-
4b#}	-ten,}
=55	=55
{4ee	{Hoff-
4dd#	|
4cc#	-nungs-
4b	|
=56	=56
4a	-pflan-
4g#	|
4f#	-zen,
4e}	|}
=57	=57
{2b	{Ta-
2b	-ten-
=58	=58
2.b	-fllu-
4d#	|
=59	=59
2e}	-ten!}
2r	.
=60	=60
{4.cc#	{Licht
8dd#	er-
4cc#	-zeu-
4b#	-get
=61	=61
4.ee	al-
8dd#	-le
4cc#	Glu-
4b#}	-ten,}
=62	=62
{4ee	{Hoff-
4dd#	|
4cc#	-nungs-
4b	|
=63	=63
4a	-pflan-
4g#	|
4f#	-zen,
4e}	|}
=64	=64
{2b	{Ta-
2b	-ten-
=65	=65
2.b	-flu-
4d#	|
=66	=66
2e}	-ten!"}
2r	.
==	==
*-	*-